flaticon/interaction/mail-4.svg

<svg xmlns="http://www.w3.org/2000/svg" width="32" height="32" viewBox="0 0 24 24">
    <path d="M 22.398438 16.734375 C 22.226562 15.089844 20.859375 13.800781 19.21875 13.800781 C 18.191406 13.800781 17.226562 14.316406 16.625 15.160156 C 16.511719 15.140625 16.390625 15.128906 16.273438 15.128906 C 15.34375 15.128906 14.519531 15.761719 14.246094 16.65625 C 13.484375 17.109375 13 17.953125 13 18.855469 C 13 20.257812 14.113281 21.398438 15.484375 21.398438 L 19.792969 21.398438 C 19.816406 21.398438 19.839844 21.398438 19.867188 21.398438 C 19.890625 21.398438 19.914062 21.398438 19.9375 21.398438 L 21.660156 21.398438 C 22.953125 21.398438 24 20.324219 24 19.003906 C 24 17.964844 23.34375 17.054688 22.398438 16.734375 Z M 21.660156 20.601562 L 19.921875 20.597656 L 19.851562 20.597656 L 15.484375 20.601562 C 14.554688 20.601562 13.800781 19.816406 13.800781 18.855469 C 13.800781 18.191406 14.179688 17.574219 14.765625 17.28125 L 14.941406 17.195312 L 14.980469 17.007812 C 15.113281 16.382812 15.65625 15.929688 16.273438 15.929688 C 16.410156 15.929688 16.546875 15.953125 16.679688 15.996094 L 16.992188 16.101562 L 17.15625 15.816406 C 17.59375 15.054688 18.363281 14.601562 19.21875 14.601562 C 20.523438 14.601562 21.601562 15.699219 21.617188 17.050781 L 21.621094 17.375 L 21.941406 17.4375 C 22.671875 17.578125 23.199219 18.238281 23.199219 19.003906 C 23.199219 19.882812 22.507812 20.601562 21.660156 20.601562 Z M 21.660156 20.601562"/>
    <path d="M 10.148438 12.140625 C 10.546875 12.5 11.074219 12.675781 11.601562 12.675781 C 12.125 12.675781 12.652344 12.5 13.050781 12.144531 L 22.398438 3.886719 L 22.398438 13.398438 C 22.398438 13.621094 22.578125 13.800781 22.800781 13.800781 C 23.019531 13.800781 23.199219 13.621094 23.199219 13.398438 L 23.199219 3 C 23.199219 2.996094 23.199219 2.992188 23.199219 2.992188 C 23.195312 2.945312 23.191406 2.902344 23.175781 2.859375 C 23.171875 2.855469 23.171875 2.855469 23.167969 2.851562 C 23.164062 2.839844 23.160156 2.832031 23.152344 2.824219 C 23.136719 2.789062 23.117188 2.757812 23.09375 2.734375 C 23.082031 2.722656 23.070312 2.710938 23.058594 2.703125 C 23.035156 2.679688 23.007812 2.664062 22.980469 2.648438 C 22.964844 2.640625 22.953125 2.632812 22.941406 2.628906 C 22.894531 2.613281 22.847656 2.601562 22.800781 2.601562 L 0.398438 2.601562 C 0.351562 2.601562 0.304688 2.613281 0.257812 2.628906 C 0.246094 2.632812 0.234375 2.640625 0.21875 2.648438 C 0.191406 2.664062 0.164062 2.679688 0.140625 2.703125 C 0.128906 2.710938 0.117188 2.722656 0.105469 2.734375 C 0.0820312 2.757812 0.0625 2.789062 0.046875 2.824219 C 0.0429688 2.832031 0.0351562 2.839844 0.03125 2.851562 C 0.0273438 2.855469 0.0273438 2.855469 0.0273438 2.859375 C 0.0078125 2.902344 0.00390625 2.945312 0 2.992188 C 0.00390625 2.992188 0 2.996094 0 3 L 0 18.601562 C 0 18.601562 0 18.601562 0 18.605469 C 0 18.644531 0.0078125 18.6875 0.0234375 18.730469 C 0.0234375 18.738281 0.0273438 18.738281 0.0273438 18.746094 C 0.0351562 18.757812 0.0429688 18.769531 0.0507812 18.78125 C 0.0664062 18.8125 0.0820312 18.839844 0.105469 18.863281 C 0.113281 18.875 0.125 18.886719 0.140625 18.898438 C 0.164062 18.917969 0.191406 18.9375 0.21875 18.953125 C 0.230469 18.957031 0.246094 18.964844 0.257812 18.972656 C 0.304688 18.988281 0.351562 19 0.398438 19 L 11.199219 19 C 11.421875 19 11.601562 18.820312 11.601562 18.601562 C 11.601562 18.378906 11.421875 18.199219 11.199219 18.199219 L 1.550781 18.199219 C 3.371094 16.757812 7.472656 13.488281 9.578125 11.640625 Z M 21.742188 3.398438 L 12.519531 11.542969 C 12.011719 11.996094 11.1875 11.996094 10.679688 11.542969 L 9.886719 10.84375 C 9.886719 10.84375 9.886719 10.839844 9.882812 10.835938 C 9.871094 10.824219 9.859375 10.820312 9.847656 10.8125 L 1.457031 3.398438 Z M 0.800781 17.773438 L 0.800781 3.886719 L 8.976562 11.105469 C 6.753906 13.046875 2.433594 16.480469 0.800781 17.773438 Z M 0.800781 17.773438"/>
</svg>

<svg xmlns="http://www.w3.org/2000/svg" width="32" height="32" viewBox="0 0 24 24">
    <path d="M22.398 16.734c-.171-1.644-1.539-2.933-3.18-2.933a3.202 3.202 0 0 0-2.593 1.36 2.1 2.1 0 0 0-.352-.032c-.93 0-1.753.633-2.027 1.527a2.574 2.574 0 0 0-1.246 2.2c0 1.402 1.113 2.542 2.484 2.542h6.176c1.293 0 2.34-1.074 2.34-2.394a2.39 2.39 0 0 0-1.602-2.27zm-.738 3.868l-1.738-.004h-.07l-4.368.004c-.93 0-1.683-.786-1.683-1.747 0-.664.379-1.28.965-1.574l.175-.086.04-.187c.132-.625.675-1.078 1.292-1.078.137 0 .274.023.407.066l.312.106.164-.286c.438-.761 1.207-1.214 2.063-1.214 1.304 0 2.383 1.097 2.398 2.449l.004.324.32.063c.73.14 1.258.8 1.258 1.566 0 .879-.691 1.598-1.539 1.598zm0 0"/>
    <path d="M10.148 12.14c.399.36.926.536 1.454.536.523 0 1.05-.176 1.449-.531l9.347-8.258v9.511a.401.401 0 0 0 .8 0L23.2 3v-.008a.498.498 0 0 0-.023-.133l-.008-.007a.063.063 0 0 0-.016-.028.298.298 0 0 0-.093-.12.352.352 0 0 0-.079-.056c-.015-.007-.027-.015-.039-.02a.449.449 0 0 0-.14-.026H.398a.449.449 0 0 0-.14.027c-.012.004-.024.012-.04.02a.352.352 0 0 0-.077.054c-.012.008-.024.02-.036.031a.298.298 0 0 0-.058.09c-.004.008-.012.016-.016.028-.004.003-.004.003-.004.007A.384.384 0 0 0 0 2.992c.004 0 0 .004 0 .008v15.605c0 .04.008.082.023.125 0 .008.004.008.004.016l.024.035a.301.301 0 0 0 .054.082.558.558 0 0 0 .152.11.449.449 0 0 0 .141.027H11.2a.401.401 0 1 0 0-.8H1.551c1.82-1.442 5.922-4.712 8.027-6.56zm11.594-8.742l-9.222 8.145a1.415 1.415 0 0 1-1.84 0l-.793-.7s0-.003-.004-.007c-.012-.012-.024-.016-.035-.024L1.457 3.399zM.801 17.773V3.887l8.176 7.218C6.754 13.047 2.434 16.48.8 17.773zm0 0"/>
</svg>
